!!!OTL: Home on the Range
!!!COM: Kelly, Dan
!!!LYR: Higley, Brewster
!!!ODT: 1873
!!!YOR: The Folksong Fake Book
!!!YOY: 2000
!!!AST: Folk song
!!!YEC: Brian Luke, 2001
**kern	**harm
*k[f#]	*k[f#]
*M3/4	*M3/4
*G:	*G:
*>A	*>A
4d	.
=1	=1
4d	I
4g	.
4a	.
=2	=2
2b	.
8g	.
8f#	.
=3	=3
4e	IV
4cc	.
4cc	.
=4	=4
2cc	.
8b	.
8cc	.
=5	=5
4.dd	I
8g	.
4g	.
=6	=6
4g	V7/V
4f#	.
4g	.
=7	=7
[2.a	V7;
=8	=8
2a]	.
*>A'	*>A'
4d	.
=9	=9
4d	I
4g	.
4a	.
=10	=10
2b	.
8g	.
8f#	.
=11	=11
4e	IV
4cc	.
4cc	.
=12	=12
2cc	.
8cc	.
8cc	.
=13	=13
4.b	I
8a	.
4g	.
=14	=14
4f#	V7
4g	.
4a	.
=15	=15
[2.g	I;
=16	=16
2.g]	.
*>B	*>B
=17	=17
2.dd	I
=18	=18
4cc	V7
4.b	.
8a#	.
=19	=19
[2.b	I
=20	=20
2b]	.
8d	.
8d	.
=21	=21
4g	vi
4g	.
4g	.
=22	=22
4g	V7/V
4f#	.
4g	.
=23	=23
[2.a	V7;
=24	=24
2a]	.
*>A'	*>A'
4d	.
=25	=25
4d	I
4g	.
4a	.
=26	=26
2b	.
8g	.
8f#	.
=27	=27
4e	IV
4cc	.
4cc	.
=28	=28
2cc	iv
8cc	.
8cc	.
=29	=29
4.b	I
8a	.
4g	.
=30	=30
4f#	V7
4g	.
4a	.
=31	=31
[2.g	I;
=32	=32
4g]	.
4r	.
*-	*-
